assets/img/down-arrow.svg

<svg xmlns="http://www.w3.org/2000/svg" fill="#fff" style="width: 24px; height: 24px; transform: rotate(90deg);" viewBox="0 0 24 24">
  <path d="M6 2h4v4H6V2Zm8 8h-4V6h4v4Zm0 4v-4h4v4h-4Zm-4 4h4v-4h-4v4Zm0 0v4H6v-4h4Z"/>
</svg>

<svg viewBox="0 0 24 24" fill="white" xmlns="http://www.w3.org/2000/svg" style="width: 24px; height: 24px; transform: rotate(90deg);">
  <path d="M6 2H10V6H6V2Z"/>
  <path d="M14 10H10V6H14V10Z"/>
  <path d="M14 14V10H18V14H14Z"/>
  <path d="M10 18H14V14H10V18Z"/>
  <path d="M10 18V22H6V18H10Z"/>
</svg>
